X: 143112
T: ATTWOOD
Q: "Hornpipe."
R:  Hornpipe.
%R: hornpipe
B: James Kerr "Merry Melodies" v.1 p.43 s.1 #12
Z: 2016 John Chambers <jc:trillian.mit.edu>
M: C
L: 1/8
K: G
(3(uDEF) |\
G>FA>G B>Ac>B | d>ce>d c>BA>G |\
E>GF>A G>BA>c | (3(BAG) c>B A2 (3(DEF) |\
G>FA>G B>Ac>B |
d>ce>d c>BA>G |\
E>GF>A G>BA>c | B>GA>F G2 :|\
|: (3(def) |\
g2 (3(bag) f>ge>f | d>ec>d B>cA>B |
G>DB,>D G>BA>c | (3(BAG) c>B A2 (3(def) |\
g2 (3(bag) f>ge>f | d>ec>d B>cA>B |\
G>DB,>D G>BA>c | B>GA>F G2 H:|

%%sep 1 1 500
%%sep 1 1 500

